X:1
T:Jungfrau mercket jetzt
T:Gemignano Capilupi
T:Source : Canzonette mit 3 Stimmen/ H.Vecchi und G.Capilupi---Nürnberg---P.Kaffmann---1606. Editor : André Vierendeels (21/02/17).
T:Notes : Original clefs : C1, C1, F4 Editorial accidentals above the staff Text Middle German by Valentin Hauszmann German contrafactum of "Amar Donna che" 1597 
T:Jungfrau mercket jetzt
T:©
T:©
T:©
C:Gemignano Capilupi
Z:©
%%score [ 1 2 3 ]
L:1/8
Q:1/4=100
M:4/4
K:C
V:1 treble nm="Soprano 1" snm="S 1"
V:2 treble nm="Soprano 2" snm="S 2"
V:3 bass nm="Bass" snm="B"
V:1
"^1)" z2 d2 d4- | d2 c3 c B2 | A2 A2 B2 c2- | c2 c2 c2 B2 | A2 A2 z4 | z2 G2 G3 F | E2 D2 E4 | %7
w: Jung- frau|_ mer- cket jetzt|e- ben, die wort,|_ die ich wil|ge- ben,|euch keck- lich|und gut run-|
w: An euch|_ ist nichts zu-|wer- ben, ihr brecht|_ mich ins ver-|der- ben,|das kan ich|jetzt ver- steh-|
 F4 c2 B2- | B2 B2 A2 A2 | d2 c4 c2 | B2 B2 e2 d2- | d2 c2 B4 | A8 ::[M:6/4] c2 c2 d2 e2 e2 f2 | %14
w: de, ausz wa-|* rem Mun- de,|ist es ge-|zo- gen, und nicht|_ er- lo-|gen,|ihr thut nur scher- zen, mit|
w: en, dasz eur|_ ge- mü- the,|hat dasz ge-|blü- te, und es|_ nicht mei-|net,|gleich wie es schei- net, das-|
 d4 d2 e4 e2 |[M:4/4] e2 ee d2 d2 | c4 B4 |[M:6/4] e2 d2 c2 B2 B2 z2 | B2 c2 d2 e2 e2 d2 | %19
w: fal- schem Her- tzen,|stand- haff- tig ihr nicht|lie- bet,|vil un- treu ü- bet,|vil un- treu ü- bet, vil|
w: sel- be mich' _|das- sel- be mich ver-|lei- det,|und von euch schei- det,|und von euch schei- det, und|
 c4 B2 A6 | B12 :| %21
w: un- treu ü-|bet.|
w: von euch schei-|det.|
V:2
"^2)""^1)" z2 B2 B4- | B2 E3 E G2 | ^F2 F2 G2 A2- | A2 A2 A2 G2 | ^F2 F2 z2 G2 | G3 F E2 D2 | %6
w: Jung- frau|_ mer- cket jetzt|e- ben, die wort|_ die ich wil|ge- ben, euch|keck- lich und run-|
w: Weil ihr|_ an mir be-|wei- set, dasz nicht|_ Jung- frau- en|prei- set, so|mö- get ihr hin-|
 ^C2 D4 C2 | D4 A2 G2- | G2 G2 ^F2 F2 | G2 A4 A2 | ^G2 G2 c2 B2- | B2 A2 ^G4 | A8 :: %13
w: |de, ausz wa-|* rem Mun- de|ist es ge-|zo- gen, und nicht|_ er- lo-|gen,|
w: fah- * *|ren, ich wil|_ es spa- ren,|bisz mir mit|eh- ren, Gott wirdt|_ be- sche-|ren,|
[M:6/4] A2 A2 G2 G2 G2 c2 | B4 B2 c4 c2 |[M:4/4] c2 cc B2 G2- | G2 ^F2 G4 | %17
w: ihr thut nur scher- zen, mit|fal- schem Her- tzen,|stand- haff- tig ihr nicht|_ lie- bet,|
w: ein Hertz ge- treu- e, welchs|mich er- freu- e,|und lie- be mich für|_ al- len,|
[M:6/4] G2 G2 A2 D2 D2 A2 | G4 F2 G2 G2 D2 | E4 G2 ^F6 | G12 :| %21
w: vil un- treu ü- bet, vil|un- treu ü- bet, vil|un- treu ü-|bet.|
w: nach meim ge- fal- len, nach|meim ge- fal- len, nach|meim ge- fal-|len.|
V:3
"^3)""^1)" z2 G,2 G,4- | G,2 C,3 C, G,,2 | D,2 D,2 G,2 F,2- | F,2 F,2 F,2 G,2 | D,2 D,2 z2 G,2 | %5
w: Jung- frau|_ mer- cket jetzt|e- ben, die wort|_ die ich wil|ge- be, euch|
 G,6 G,2 | A,2 _B,2 A,4 | D,4 A,,2 B,,2- | B,,2 C,2 D,2 D,2 | B,,2 C,4 D,2 | E,2 E,2 C,2 D,2- | %11
w: keck- lich|und run- *|de, ausz wa-|* rem Mun- de|ist es ge-|zo- gen, und nicht|
 D,2 D,2 E,4 | A,,8 ::[M:6/4] A,2 A,2 B,2 C2 C2 F,2 | G,4 G,2 C,4 C,2 |[M:4/4] C2 CC G,2 G,2 | %16
w: _ er- lo-|gen,|ihr thut nur scher- zen, mit|fal- schem Her- tzen,|stand- haff- tig ihr nicht|
 A,4 G,4 |[M:6/4] C2 B,2 A,2 G,2 G,2 F,2 | E,4 D,2 C,2 C,2 B,,2 | A,,4 G,,2 D,6 | G,,12 :| %21
w: lie- bet.|vil un- treu ü- bet, vil|un- treu ü- bet, vil|un- treu ü-|bet.|

